X:29
T:Lass of Paties Mill,The. JJo.029
S:J.Jones MS,1801,N.Shrops.
A:N Shropshire
Z:Neil Brookes 2006
M:4/4
L:1/8
Q:1/2=70
K:F
c2|{B}A2GF ABc2|f3ga2c2|defe dcBA|{A}G6c>B|!
{B}A2GF ABc2|f3g{fg}a2c2|defd efga|f3gf2||!
a2|bagf fedc|f3g{fg}a2c2|defe dcBA|c3AG2a>b|!
c’abg afdb|{a}g4 z2BA|B2cdc2fe f3gf2|]

